svgs/sharp-regular/walkie-talkie.svg

<svg xmlns="http://www.w3.org/2000/svg" viewBox="0 0 384 512"><!--! Font Awesome Pro 6.6.0 by @fontawesome - https://fontawesome.com License - https://fontawesome.com/license (Commercial License) Copyright 2024 Fonticons, Inc. --><path d="M112 0l0 24 0 72 48 0 0-32 64 0 0 32 32 0 0-32 64 0 0 32 40 0 24 0 0 24 0 192 0 9.9-7 7-25 25L352 488l0 24-24 0L56 512l-24 0 0-24 0-134.1L7 329l-7-7L0 312 0 120 0 96l24 0 40 0 0-72L64 0l48 0zM48 144l0 158.1 25 25 7 7 0 9.9 0 120 224 0 0-120 0-9.9 7-7 25-25L336 144l-16 0-64 0-32 0-64 0-48 0-48 0-16 0zm88 48l112 0 24 0 0 48-24 0-112 0-24 0 0-48 24 0zm0 80l112 0 24 0 0 48-24 0-112 0-24 0 0-48 24 0z"/></svg>

<svg xmlns="http://www.w3.org/2000/svg" viewBox="0 0 384 512"><!--! Font Awesome Pro 6.5.2 by @fontawesome - https://fontawesome.com License - https://fontawesome.com/license (Commercial License) Copyright 2024 Fonticons, Inc. --><path d="M112 0V24 96h48V64h64V96h32V64h64V96h40 24v24V312v9.9l-7 7-25 25V488v24H328 56 32V488 353.9L7 329l-7-7V312 120 96H24 64V24 0h48zM48 144V302.1l25 25 7 7V344 464H304V344v-9.9l7-7 25-25V144H320 256 224 160 112 64 48zm88 48H248h24v48H248 136 112V192h24zm0 80H248h24v48H248 136 112V272h24z"/></svg>
